X:1
T:Elizabeth Adair
C:A Fitchet
S:Heather Payne, May 2006
H:was Anon057
O:May 2006
M:6/8
L:1/8
R:Jig
K:D
A2 F d2 c | B2 G e2 d | cde ABc | d2 f a3 |\
A2 F d2 c | B2 G e2 d | cde ABc | d6 |]
